22x22/emotes/face-crying.svg

<svg xmlns="http://www.w3.org/2000/svg" width="22" height="22" version="1">
 <path style="opacity:0.2" d="m 11,1.5 c -5.54,0 -10,4.46 -10,10 0,5.54 4.46,10 10,10 5.54,0 10,-4.46 10,-10 0,-5.54 -4.46,-10 -10,-10 z"/>
 <path style="fill:#ffa50c" d="M 11,1 C 5.46,1 1,5.46 1,11 1,16.54 5.46,21 11,21 16.54,21 21,16.54 21,11 21,5.46 16.54,1 11,1 Z"/>
 <path style="opacity:0.1" d="M 6.240187,10.029946 C 5.6088415,9.403207 6.351206,9.010335 6.982551,8.3835965 c 0.6313455,-0.626739 0.9125945,-1.250012 1.54394,-0.623273 0.631345,0.626739 0.631345,1.6428835 0,2.2696225 -0.6313455,0.626739 -1.6549585,0.626739 -2.286304,0 z"/>
 <path style="fill:#17191e" d="M 6.240187,9.529946 C 5.6088415,8.903207 6.351206,8.510335 6.982551,7.8835965 c 0.6313455,-0.626739 0.9125945,-1.250012 1.54394,-0.623273 0.631345,0.626739 0.631345,1.6428835 0,2.2696225 -0.6313455,0.626739 -1.6549585,0.626739 -2.286304,0 z"/>
 <path style="opacity:0.1;fill:none;stroke:#000000;stroke-linecap:round;stroke-linejoin:round" d="m 6.5,16.994293 c 0,0 1.5,-2 4.5,-2 3,0 4.5,2 4.5,2 v 0 0"/>
 <path style="fill:none;stroke:#17191e;stroke-linecap:round;stroke-linejoin:round" d="m 6.5,16.494293 c 0,0 1.5,-2 4.5,-2 3,0 4.5,2 4.5,2 v 0 0"/>
 <path style="opacity:0.2;fill:#f4f4f7" d="M 11,1 C 5.46,1 1,5.46 1,11 1,11.08394 1.00382,11.166571 1.00586,11.25 1.1381952,5.8269315 5.543937,1.5 11,1.5 c 5.456063,0 9.861805,4.3269315 9.99414,9.75 C 20.996176,11.166571 21,11.083937 21,11 21,5.46 16.54,1 11,1 Z"/>
 <path style="opacity:0.1" d="m 15.759812,10.029946 c 0.631346,-0.626739 -0.111019,-1.019611 -0.742364,-1.6463495 -0.631345,-0.626739 -0.912594,-1.250012 -1.543939,-0.623273 -0.631345,0.626739 -0.631345,1.6428835 0,2.2696225 0.631345,0.626739 1.654958,0.626739 2.286303,0 z"/>
 <path style="fill:#17191e" d="m 15.759812,9.529946 c 0.631346,-0.626739 -0.111019,-1.019611 -0.742364,-1.6463495 -0.631345,-0.626739 -0.912594,-1.250012 -1.543939,-0.623273 -0.631345,0.626739 -0.631345,1.6428835 0,2.2696225 0.631345,0.626739 1.654958,0.626739 2.286303,0 z"/>
 <path style="opacity:0.1" d="m 16.5,15.5 c -0.845155,0 -1.5,-0.752732 -1.5,-1.400274 0,-0.449453 0.218781,-0.965847 0.521479,-1.681694 0.04346,-0.103825 0.08991,-0.211748 0.136364,-0.323769 0.238261,-0.572406 0.584415,-1.188525 0.824175,-1.594263 0.211288,0.398906 0.527471,1.002732 0.824175,1.607922 C 17.844156,13.209017 18,13.655739 18,14.099726 18,14.747268 17.345154,15.5 16.5,15.5 Z"/>
 <path style="fill:#2e84d7" d="M 16.5,15 C 15.654845,15 15,14.247268 15,13.599726 c 0,-0.449453 0.218781,-0.965847 0.521479,-1.681694 0.04346,-0.103825 0.08991,-0.211748 0.136364,-0.323769 0.238261,-0.572406 0.584415,-1.188525 0.824175,-1.594263 0.211288,0.398906 0.527471,1.002732 0.824175,1.607922 C 17.844156,12.709017 18,13.155739 18,13.599726 18,14.247268 17.345154,15 16.5,15 Z"/>
</svg>

<svg xmlns="http://www.w3.org/2000/svg" width="22" height="22" version="1"><path style="opacity:.2" d="M11 1.5c-5.54 0-10 4.46-10 10s4.46 10 10 10 10-4.46 10-10-4.46-10-10-10z"/><path style="fill:#ffa50c" d="M11 1C5.46 1 1 5.46 1 11s4.46 10 10 10 10-4.46 10-10S16.54 1 11 1z"/><path style="opacity:.1" d="M6.24 10.03c-.631-.627.111-1.02.743-1.646.63-.627.912-1.25 1.543-.624a1.597 1.597 0 0 1 0 2.27 1.625 1.625 0 0 1-2.286 0z"/><path style="fill:#17191e" d="M6.24 9.53c-.631-.627.111-1.02.743-1.646.63-.627.912-1.25 1.543-.624a1.597 1.597 0 0 1 0 2.27 1.625 1.625 0 0 1-2.286 0z"/><path style="opacity:.1;fill:none;stroke:#000;stroke-linecap:round;stroke-linejoin:round" d="M6.5 16.994s1.5-2 4.5-2 4.5 2 4.5 2v0"/><path style="fill:none;stroke:#17191e;stroke-linecap:round;stroke-linejoin:round" d="M6.5 16.494s1.5-2 4.5-2 4.5 2 4.5 2v0"/><path style="opacity:.2;fill:#f4f4f7" d="M11 1C5.46 1 1 5.46 1 11c0 .084.004.167.006.25A9.976 9.976 0 0 1 11 1.5a9.976 9.976 0 0 1 9.994 9.75c.002-.083.006-.166.006-.25 0-5.54-4.46-10-10-10z"/><path style="opacity:.1" d="M15.76 10.03c.631-.627-.111-1.02-.743-1.646-.63-.627-.912-1.25-1.543-.624a1.597 1.597 0 0 0 0 2.27 1.625 1.625 0 0 0 2.286 0z"/><path style="fill:#17191e" d="M15.76 9.53c.631-.627-.111-1.02-.743-1.646-.63-.627-.912-1.25-1.543-.624a1.597 1.597 0 0 0 0 2.27 1.625 1.625 0 0 0 2.286 0z"/><path style="opacity:.1" d="M16.5 15.5c-.845 0-1.5-.753-1.5-1.4 0-.45.219-.966.521-1.682l.137-.324c.238-.572.584-1.188.824-1.594.211.399.527 1.003.824 1.608.538 1.101.694 1.548.694 1.992 0 .647-.655 1.4-1.5 1.4z"/><path style="fill:#2e84d7" d="M16.5 15c-.845 0-1.5-.753-1.5-1.4 0-.45.219-.966.521-1.682l.137-.324c.238-.572.584-1.188.824-1.594.211.399.527 1.003.824 1.608.538 1.101.694 1.548.694 1.992 0 .647-.655 1.4-1.5 1.4z"/></svg>
